X:600
T: Ballydesmond #1
M: 2/4
L: 1/8
R: Polka
Q: 300
K: Ador
B|c2 B2|A2 G>A|Bd ed|g2 ed|
ea g/a/g/e/|dB GA/B/|ce dB|A2 A :|
d|ea ag/e/|dg gd|ea ab|g2 ed|
ea g/a/g/e/|dB GA/B/|ce dB|A2 A :|
